assets/img/partners/slider-2/eurowings.svg

<?xml version="1.0" encoding="UTF-8"?>
<svg width="300px" height="100px" viewBox="0 0 300 100" version="1.1" xmlns="http://www.w3.org/2000/svg" xmlns:xlink="http://www.w3.org/1999/xlink">
    <!-- Generator: Sketch 46.2 (44496) - http://www.bohemiancoding.com/sketch -->
    <title>eurowings</title>
    <desc>Created with Sketch.</desc>
    <defs></defs>
    <g id="Page-1" stroke="none" stroke-width="1" fill="none" fill-rule="evenodd">
        <g id="eurowings">
            <g id="Eurowings_Logo" transform="translate(36.000000, 16.000000)">
                <polygon id="Shape" fill="#8F174F" fill-rule="nonzero" points="0.894735714 22.9182222 0.894735714 49.5534444 17.5332214 49.5534444 18.4508571 45.12025 6.19608571 45.12025 6.19608571 38.3598333 16.3358786 38.3598333 17.2584214 33.5611667 6.19608571 33.5611667 6.19608571 27.3448611 17.46125 27.3448611 18.4508571 22.9182222"></polygon>
                <path d="M170.546114,37.9386389 C171.538993,38.0615556 172.890093,38.2565833 173.560736,38.5925556 C174.233014,38.9318056 174.797336,39.4251111 175.19645,39.9118611 C175.593929,40.3986111 175.880179,40.9476389 176.053564,41.5589444 C176.22695,42.17025 176.315279,42.7864722 176.315279,43.4108889 L176.315279,43.7861944 C176.315279,44.88425 176.115721,45.8249722 175.718243,46.61 C175.319129,47.3966667 174.753171,48.0309167 174.020371,48.5176667 C173.2843,49.0044167 171.8874,49.3944722 170.853629,49.6206389 C169.819857,49.8468056 168.683036,49.9566111 167.436621,49.9566111 C166.3914,49.9566111 165.270936,49.8746667 164.076864,49.7156944 C162.881157,49.5518056 161.687086,49.2846667 160.493014,48.9093611 L161.323957,45.2579167 C162.493493,45.5824167 163.5518,45.7774444 164.497243,45.9151111 C165.442686,46.0527778 166.389764,46.1003056 167.335207,46.1199722 C168.2234,46.1396389 168.794264,46.1330833 169.384757,46.0675278 C169.927814,46.0068889 170.333471,45.8479167 170.631171,45.6496111 C170.932143,45.4496667 171.210214,45.1399167 171.296907,44.8318056 C171.373786,44.5728611 171.39505,44.4204444 171.39505,44.0467778 C171.39505,43.4731667 171.23475,43.0683611 170.950136,42.6832222 C170.663886,42.2964444 170.071757,42.0850278 169.149214,41.9604722 L166.376679,41.5786111 C164.43345,41.3311389 162.437879,40.7985 161.515336,39.8774444 C160.594429,38.95475 160.133157,37.7321389 160.133157,36.2128889 L160.133157,35.8375833 C160.133157,33.8692778 160.86105,32.3893611 162.318471,31.4043889 C163.775893,30.4194167 166.442107,29.795 169.155757,29.795 C170.498679,29.795 171.712379,29.8949722 172.796857,30.0949167 C173.881336,30.2948611 174.743357,30.5193889 175.3911,30.7685 L174.502907,34.3101389 C173.631071,34.0823333 172.744514,33.9200833 171.908664,33.8102778 C170.995936,33.689 170.1928,33.6332778 169.247357,33.6332778 C167.529857,33.6332778 166.420843,33.7316111 165.810721,34.0888889 C165.2006,34.4527222 164.93725,34.79525 164.93725,35.5933889 C164.93725,36.2653333 165.158071,36.6406389 165.529379,36.9258056 C165.903957,37.21425 166.500993,37.4436944 167.4448,37.5698889 L170.546114,37.9386389 Z" id="Shape" fill="#8F174F" fill-rule="nonzero"></path>
                <path d="M152.836236,30.1440833 C151.413164,29.7818889 150.024443,29.6901111 148.421443,29.6901111 C146.896957,29.6901111 145.06005,29.8802222 143.8578,30.2424167 C142.657186,30.6029722 141.634864,31.1585556 140.795743,31.9058889 C139.954986,32.6548611 139.308879,33.61525 138.857421,34.7870556 C138.404329,35.9588611 138.1786,37.3535556 138.1786,38.9776944 L138.1786,40.2871667 C138.1786,43.4551389 138.818164,45.7807222 140.097293,47.2622778 C141.376421,48.7471111 143.746571,49.7009444 146.281929,49.7009444 C148.917064,49.7009444 150.565864,48.9781944 151.913693,47.6785556 L151.913693,48.5291389 C151.913693,50.5990556 151.56365,51.8347778 150.698357,52.8820278 C149.833064,53.9292778 148.292221,54.3865278 146.303193,54.2980278 C144.912836,54.2373889 144.111336,54.1538056 143.053029,53.9817222 C141.993086,53.8063611 141.005114,53.5736389 140.100564,53.2999444 L139.232,57.2627778 C140.4457,57.6856111 141.69375,57.9920833 142.972879,58.1789167 C144.252007,58.36575 145.668536,58.4231111 147.217557,58.4608056 C150.421921,58.5345556 152.867314,57.5872778 154.560279,55.8418611 C156.253243,54.0948056 157.005671,51.6266389 157.005671,48.4340833 L157.005671,31.7092222 C155.844314,31.0864444 154.256036,30.5062778 152.836236,30.1440833 L152.836236,30.1440833 Z M151.915329,40.7296667 C151.915329,42.4750833 151.578371,43.7599722 150.909364,44.5826944 C150.237086,45.4054167 149.165693,45.8184167 147.696821,45.8184167 C146.849521,45.8184167 146.160886,45.6938611 145.624371,45.4431111 C145.087857,45.194 144.672386,44.8268889 144.37305,44.3401389 C144.072079,43.85175 143.867614,43.26175 143.758021,42.5619444 C143.645157,41.8637778 143.587907,41.0541667 143.587907,40.1314722 L143.587907,38.7859444 C143.587907,36.7914167 143.967393,35.3672222 144.726364,34.5199167 C145.485336,33.6726111 146.68595,33.2481389 148.329843,33.2481389 C148.97595,33.2481389 149.623693,33.3120556 150.271436,33.4349722 C150.919179,33.5595278 151.465507,33.7594722 151.913693,34.0331667 L151.913693,40.7296667 L151.915329,40.7296667 Z" id="Shape" fill="#8F174F" fill-rule="nonzero"></path>
                <rect id="Rectangle-path" x="0.894735714" y="0.878444444" width="227.184357" height="57.5823611"></rect>
                <path d="M116.947029,49.5534444 L116.947029,30.1391667 L121.677514,30.1391667 L121.975214,32.2353056 C122.596786,31.4109444 123.399921,30.7799722 124.384621,30.3456667 C125.367686,29.9097222 126.493057,29.6901111 127.762371,29.6901111 C128.807593,29.6901111 129.993486,29.8277778 130.852236,30.1014722 C131.710986,30.3768056 132.451964,30.7947222 133.073536,31.3552222 C133.695107,31.9173611 134.180914,32.6204444 134.529321,33.4693889 C134.879364,34.3183333 135.05275,35.3147778 135.05275,36.462 L135.05275,49.5534444 L129.90025,49.5534444 L129.90025,37.6944444 C129.90025,36.1243889 129.614,35.0066667 129.043136,34.3461944 C128.469,33.6857222 127.615157,33.3579444 126.2706,33.3579444 C124.803364,33.3579444 123.713979,34.1265833 123.061329,35.0165 C122.374329,35.9539444 122.277821,37.8353889 122.277821,39.5316389 L122.277821,49.5518056 L116.947029,49.5518056 L116.947029,49.5534444 Z" id="Shape" fill="#8F174F" fill-rule="nonzero"></path>
                <path d="M55.5374071,34.4855 C55.2364357,34.41175 54.8782143,34.338 54.4545643,34.2609722 C54.0292786,34.1872222 53.5958143,34.1511667 53.1459929,34.1511667 C51.5037357,34.1511667 50.3162071,34.5805556 49.5801357,35.4393333 C48.8457,36.29975 48.6592286,37.2339167 48.6592286,39.0039167 L48.6592286,49.5534444 L43.0749,49.5534444 L43.0749,30.1391667 L48.0621929,30.1391667 L48.3615286,32.4581944 C48.9831,31.6108889 49.7567929,30.9684444 50.6760643,30.5308611 C51.5969714,30.0949167 52.70435,29.8769444 53.9982,29.8769444 C54.4970929,29.8769444 54.9387357,29.9080833 55.3247643,29.9703611 C55.7107929,30.0326389 56.1131786,30.1391667 56.5384643,30.2883056 L55.5374071,34.4855 Z" id="Shape" fill="#8F174F" fill-rule="nonzero"></path>
                <path d="M39.6317214,30.1391667 L39.6317214,49.5550833 L34.9028714,49.5550833 L34.6051714,47.4605833 C33.9836,48.2833056 33.1804643,48.9142778 32.1957643,49.3485833 C31.2127,49.7845278 30.0856929,50.0041389 28.8180143,50.0041389 C27.7711571,50.0041389 26.5869,49.8664722 25.7265143,49.5911389 C24.8694,49.3158056 24.1284214,48.8995278 23.50685,48.3373889 C22.8852786,47.77525 22.3994714,47.0721667 22.0494286,46.2232222 C21.7010214,45.3759167 21.5276357,44.3778333 21.5276357,43.2306111 L21.5276357,30.1391667 L26.6785,30.1391667 L26.6785,41.9998056 C26.6785,43.5682222 26.9663857,44.6859444 27.53725,45.3480556 C28.10975,46.0068889 28.9652286,46.3346667 30.3097857,46.3346667 C31.7770214,46.3346667 32.8664071,45.5660278 33.5190571,44.6761111 C34.2060571,43.7386667 34.3025643,41.8555833 34.3025643,40.1626111 L34.3025643,30.1391667 L39.6317214,30.1391667 Z" id="Shape" fill="#8F174F" fill-rule="nonzero"></path>
                <path d="M110.741129,22.302 C111.783079,22.302 112.579671,22.5330833 113.04585,22.9690278 C113.512029,23.4066111 113.745936,24.0801944 113.745936,24.8783333 C113.745936,25.6764722 113.512029,26.3500556 113.04585,26.786 C112.579671,27.2219444 111.783079,27.4268056 110.741129,27.4268056 C109.70245,27.4268056 108.876414,27.2219444 108.410236,26.786 C107.944057,26.3500556 107.71015,25.6764722 107.71015,24.8783333 C107.71015,24.0801944 107.944057,23.4066111 108.410236,22.9690278 C108.876414,22.5330833 109.70245,22.302 110.741129,22.302 L110.741129,22.302 Z M108.1567,30.1391667 L113.415521,30.1391667 L113.415521,49.5550833 L108.1567,49.5550833 L108.1567,30.1391667 Z" id="Shape" fill="#8F174F" fill-rule="nonzero"></path>
                <polygon id="Shape" fill="#8F174F" fill-rule="nonzero" points="97.4345929 42.0653611 100.285643 30.1391667 105.462679 30.1391667 99.7491286 49.5550833 95.0251857 49.5550833 91.6490714 37.8140833 88.3154857 49.5550833 83.4181571 49.5550833 77.5753857 30.1391667 83.0533929 30.1391667 85.9371571 42.1899167 89.1120786 30.9618889 94.2645786 30.9618889"></polygon>
                <rect id="Rectangle-path" x="0.88165" y="0.878444444" width="227.197443" height="57.5823611"></rect>
                <path d="M76.0100071,35.3180556 C75.7237571,34.1724722 75.23795,33.1858611 74.5542214,32.3631389 C73.8688571,31.5404167 72.9528571,30.8914167 71.8078571,30.4177778 C70.6644929,29.9441389 68.8063214,29.7163333 67.0888214,29.7163333 C65.3713214,29.7163333 63.4493571,30.0080556 62.3059929,30.4816944 C61.1593571,30.9553333 60.2449929,31.6043333 59.5612643,32.4270556 C58.8759,33.2497778 58.38355,34.2363889 58.08585,35.3819722 C57.78815,36.5291944 57.5477,37.6928056 57.5477,39.0399722 L57.5477,40.6116667 C57.5477,41.9555556 57.7636143,43.1781667 58.0515,44.3253889 C58.33775,45.4726111 58.8235571,46.4641389 59.5089214,47.2983333 C60.19265,48.1358056 61.1070143,48.7897222 62.2520143,49.2633611 C63.3970143,49.737 65.3500571,50.0287222 67.0904571,50.0287222 C68.8324929,50.0287222 70.7381,49.7632222 71.8961857,49.2633611 C73.0542714,48.7667778 73.9686357,48.0915556 74.6409143,47.2458889 C75.3131929,46.4002222 75.7859143,45.4070556 76.0590786,44.2713056 C76.3338786,43.1388333 76.5612429,41.9276944 76.5612429,40.6313333 L76.5612429,39.0596389 C76.5596071,37.7124722 76.2962571,36.4669167 76.0100071,35.3180556 L76.0100071,35.3180556 Z M71.3842071,40.9115833 C71.3842071,42.9323333 71.0685143,44.3598056 70.4322214,45.1956389 C69.7975643,46.0298333 68.6967286,46.44775 67.1280786,46.44775 C66.3543857,46.44775 65.6968286,46.3608889 65.1488643,46.1855278 C64.6009,46.0134444 64.1461714,45.7151667 63.7863143,45.2890556 C63.4231857,44.8645833 63.1631071,44.2991667 63.0028071,43.58625 C62.8392357,42.8749722 62.7607214,41.9834167 62.7607214,40.9115833 L62.7607214,38.7433333 C62.7607214,36.7488056 63.0895,35.3311667 63.7486929,34.4953333 C64.4078857,33.6611389 65.5348929,33.2432222 67.1280786,33.2432222 C68.7212643,33.2432222 69.8270071,33.6611389 70.4485786,34.4953333 C71.0734214,35.3311667 71.3825714,36.7488056 71.3825714,38.7433333 L71.3825714,40.9115833 L71.3842071,40.9115833 Z" id="Shape" fill="#8F174F" fill-rule="nonzero"></path>
                <path d="M194.818479,0.965305556 C190.595064,0.386777778 188.450643,2.74186111 185.493271,4.90683333 L175.382921,12.862 L175.37965,12.8636389 L177.32615,13.8945 C177.329421,13.8977778 177.334329,13.8994167 177.339236,13.9026944 C179.871321,15.1498889 183.393014,14.7237778 185.790971,12.9439444 L190.060186,9.54488889 L191.692629,8.24361111 L199.828671,1.76672222 L194.818479,0.965305556 Z" id="Shape" fill="#7BCBE2" fill-rule="nonzero"></path>
                <rect id="Rectangle-path" x="0.894735714" y="0.878444444" width="227.184357" height="57.5823611"></rect>
                <path d="M175.382921,12.862 L177.32615,13.8961389 C177.331057,13.8977778 177.334329,13.9010556 177.339236,13.9026944 C179.871321,15.1515278 183.39465,14.7254167 185.792607,12.9439444 L190.060186,9.54652778 L191.694264,8.24525 L175.382921,12.862 Z" id="Shape" fill="#089BC9" fill-rule="nonzero"></path>
                <path d="M212.083443,5.87869444 L206.656143,4.90027778 C206.656143,4.90027778 202.877643,4.00052778 199.720714,6.45066667 C199.720714,6.45066667 197.389821,8.18788889 195.670686,9.53177778 L191.848021,12.5653611 L183.00535,19.6125833 L182.931743,19.6715833 L185.601229,21.0859444 C188.13495,22.3396944 191.664821,21.9152222 194.06605,20.1321111 L201.973093,13.8568056 L208.349107,8.82541667 L212.083443,5.87869444 Z" id="Shape" fill="#8F174F" fill-rule="nonzero"></path>
                <path d="M195.672321,9.53177778 C197.388186,8.18788889 199.719079,6.45066667 199.719079,6.45066667 C200.316114,5.98686111 200.93605,5.64433333 201.547807,5.39194444 L191.6959,8.24525 L190.061821,9.54488889 L185.795879,12.9439444 C183.397921,14.7254167 179.874593,15.1515278 177.342507,13.9026944 C179.50165,15.1990556 182.854864,15.4973333 187.90595,13.9879167 L191.355671,12.9586944 L191.851293,12.5653611 L195.672321,9.53177778 Z" id="Shape" fill="#C8C4C3" fill-rule="nonzero"></path>
                <path d="M209.56935,12.5538889 C211.196886,11.2771944 212.425307,10.3528611 213.647186,9.80383333 L202.6192,13.3471111 L201.971457,13.8584444 L194.064414,20.1321111 C191.663186,21.9152222 188.133314,22.3413333 185.599593,21.0859444 C189.492593,23.2279722 195.487486,21.653 200.528757,19.8567778 L200.829729,19.6125833 C200.828093,19.6125833 209.268379,12.7718611 209.56935,12.5538889" id="Shape" fill="#C8C4C3" fill-rule="nonzero"></path>
                <path d="M222.537293,19.6715833 C218.11105,18.3834167 216.78285,19.1979444 211.568193,20.7696389 L211.566557,20.7696389 L211.131457,21.1318333 L211.131457,21.1301944 L211.12655,21.1351111 L211.131457,21.1318333 L211.118371,21.1400278 L202.714071,27.8168611 C200.319386,29.5950556 196.576871,29.9375833 194.044786,28.6953056 C197.169,30.3276389 200.399536,29.92775 205.926614,28.2003611 L228.077457,21.3875 L222.537293,19.6715833 Z" id="Shape" fill="#C8C4C3" fill-rule="nonzero"></path>
                <path d="M224.006164,10.4643056 L218.147036,9.39575 C214.636793,8.74347222 212.976543,9.88086111 209.567714,12.5538889 C209.266743,12.7735 200.828093,19.6125833 200.828093,19.6125833 L191.354036,27.2711111 L194.021886,28.6854722 C196.557243,29.9408611 200.316114,29.5999722 202.715707,27.8168611 L211.120007,21.1400278 L211.131457,21.1318333 L211.12655,21.1351111 L224.006164,10.4643056 Z" id="Shape" fill="#8F174F" fill-rule="nonzero"></path>
                <polygon id="Shape" fill="#B4175E" fill-rule="nonzero" points="191.354036 12.9586944 210.091143 7.44875 202.617564 13.3471111 182.930107 19.6715833"></polygon>
                <polygon id="Shape" fill="#B4175E" fill-rule="nonzero" points="200.527121 19.8551389 220.931021 13.0127778 211.568193 20.7696389 191.355671 27.2711111"></polygon>
            </g>
        </g>
    </g>
</svg>

<svg width="300" height="100" xmlns="http://www.w3.org/2000/svg"><g id="Page-1" fill="none" fill-rule="evenodd"><g id="eurowings"><g id="Eurowings_Logo" transform="translate(36 16)"><path id="Shape" fill="#8F174F" fill-rule="nonzero" d="M.895 22.918v26.635h16.638l.918-4.433H6.196v-6.76h10.14l.922-4.799H6.196v-6.216h11.265l.99-4.427zm169.651 15.021c.993.123 2.344.318 3.015.654a5.177 5.177 0 0 1 1.635 1.319 4.54 4.54 0 0 1 .858 1.647c.173.611.261 1.227.261 1.852v.375c0 1.098-.2 2.039-.597 2.824a4.93 4.93 0 0 1-1.698 1.908c-.736.486-2.133.876-3.166 1.103-1.034.226-2.171.336-3.417.336-1.046 0-2.166-.082-3.36-.241a21.807 21.807 0 0 1-3.584-.807l.831-3.651c1.17.324 2.228.52 3.173.657.946.138 1.893.185 2.838.205.888.02 1.46.013 2.05-.052.543-.061.948-.22 1.246-.418.301-.2.58-.51.666-.818.077-.26.098-.412.098-.785 0-.574-.16-.979-.445-1.364-.286-.387-.878-.598-1.8-.723l-2.773-.381c-1.944-.248-3.94-.78-4.862-1.702-.92-.922-1.382-2.145-1.382-3.664v-.375c0-1.969.728-3.449 2.185-4.434 1.458-.985 4.124-1.609 6.838-1.609 1.343 0 2.556.1 3.64.3 1.085.2 1.947.424 2.595.674l-.888 3.541a21.348 21.348 0 0 0-2.594-.5 19.273 19.273 0 0 0-2.662-.177c-1.717 0-2.826.099-3.436.456-.61.364-.874.706-.874 1.504 0 .672.221 1.048.592 1.333.375.288.972.518 1.916.644l3.101.369zm-17.71-7.795c-1.423-.362-2.812-.454-4.415-.454-1.524 0-3.361.19-4.563.552-1.2.361-2.223.917-3.062 1.664-.841.749-1.487 1.71-1.939 2.881-.453 1.172-.678 2.567-.678 4.19v1.31c0 3.168.64 5.494 1.918 6.975 1.28 1.485 3.65 2.439 6.185 2.439 2.635 0 4.284-.723 5.632-2.022v.85c0 2.07-.35 3.306-1.216 4.353-.865 1.047-2.406 1.505-4.395 1.416-1.39-.06-2.192-.144-3.25-.316a23.404 23.404 0 0 1-2.952-.682l-.869 3.963c1.214.423 2.462.73 3.74.916 1.28.187 2.697.244 4.246.282 3.204.074 5.65-.874 7.342-2.62 1.693-1.746 2.446-4.214 2.446-7.407V31.71c-1.162-.623-2.75-1.203-4.17-1.565zm-.92 10.586c0 1.745-.338 3.03-1.007 3.853-.672.822-1.743 1.235-3.212 1.235-.847 0-1.536-.124-2.073-.375a2.83 2.83 0 0 1-1.25-1.103c-.302-.488-.506-1.078-.616-1.778a15.383 15.383 0 0 1-.17-2.43v-1.346c0-1.995.38-3.419 1.138-4.266.76-.847 1.96-1.272 3.604-1.272.646 0 1.294.064 1.941.187.648.125 1.195.324 1.643.598v6.697h.001z"/><path id="Rectangle-path" d="M.895.878h227.184V58.46H.895z"/><path d="M116.947 49.553V30.14h4.73l.298 2.096a5.984 5.984 0 0 1 2.41-1.89c.983-.435 2.108-.655 3.377-.655 1.046 0 2.231.138 3.09.411a6.01 6.01 0 0 1 2.222 1.254c.621.562 1.107 1.265 1.455 2.114.35.85.524 1.846.524 2.993v13.091H129.9v-11.86c0-1.57-.286-2.687-.857-3.348-.574-.66-1.428-.988-2.772-.988-1.468 0-2.557.769-3.21 1.659-.687.937-.783 2.818-.783 4.515v10.02h-5.331v.001zm-61.41-15.067c-.3-.074-.659-.148-1.082-.225a7.622 7.622 0 0 0-1.309-.11c-1.642 0-2.83.43-3.566 1.288-.734.86-.92 1.795-.92 3.565v10.55h-5.585V30.138h4.987l.3 2.32a6.078 6.078 0 0 1 2.314-1.928c.921-.436 2.028-.654 3.322-.654.5 0 .94.031 1.327.093.386.063.788.17 1.213.318l-1 4.198zM39.632 30.14v19.415h-4.73l-.297-2.094a5.995 5.995 0 0 1-2.41 1.888c-.982.436-2.11.655-3.377.655-1.047 0-2.231-.138-3.091-.413a5.992 5.992 0 0 1-2.22-1.254c-.622-.562-1.108-1.265-1.458-2.114-.348-.847-.521-1.845-.521-2.992V30.139h5.15V42c0 1.57.288 2.687.86 3.35.572.658 1.427.986 2.772.986 1.467 0 2.556-.769 3.21-1.659.686-.937.783-2.82.783-4.513V30.139h5.329zm71.109-7.838c1.042 0 1.839.231 2.305.667.466.438.7 1.111.7 1.91 0 .797-.234 1.471-.7 1.907-.466.436-1.263.64-2.305.64-1.039 0-1.865-.204-2.33-.64-.467-.436-.7-1.11-.7-1.908 0-.798.233-1.471.7-1.909.465-.436 1.291-.667 2.33-.667zm-2.584 7.837h5.259v19.416h-5.26V30.14zM97.435 42.065l2.85-11.926h5.178l-5.714 19.416h-4.724l-3.376-11.74-3.334 11.74h-4.897L77.575 30.14h5.478l2.884 12.05 3.175-11.227h5.153z" id="Shape" fill="#8F174F" fill-rule="nonzero"/><path id="Rectangle-path" d="M.882.878h227.197V58.46H.882z"/><path d="M76.01 35.318c-.286-1.146-.772-2.132-1.456-2.955-.685-.823-1.601-1.472-2.746-1.945-1.144-.474-3.002-.702-4.72-.702-1.717 0-3.639.292-4.782.766-1.147.473-2.061 1.122-2.745 1.945-.685.823-1.177 1.81-1.475 2.955-.298 1.147-.538 2.31-.538 3.658v1.572c0 1.344.216 2.566.503 3.713.287 1.148.773 2.14 1.458 2.973.684.838 1.598 1.492 2.743 1.965 1.145.474 3.098.766 4.838.766 1.742 0 3.648-.266 4.806-.766 1.158-.496 2.073-1.171 2.745-2.017.672-.846 1.145-1.839 1.418-2.975.275-1.132.502-2.343.502-3.64V39.06c-.001-1.348-.265-2.593-.551-3.742zm-4.626 5.594c0 2.02-.315 3.448-.952 4.284-.634.834-1.735 1.252-3.304 1.252-.774 0-1.431-.087-1.98-.262a2.869 2.869 0 0 1-1.362-.897c-.363-.424-.623-.99-.783-1.703-.164-.711-.242-1.603-.242-2.674v-2.169c0-1.994.328-3.412.988-4.248.659-.834 1.786-1.252 3.38-1.252 1.592 0 2.698.418 3.32 1.252.624.836.934 2.254.934 4.248v2.169h.001z" id="Shape" fill="#8F174F" fill-rule="nonzero"/><path d="M194.818.965c-4.223-.578-6.367 1.777-9.325 3.942l-10.11 7.955-.003.002 1.946 1.03c.003.004.008.005.013.009 2.532 1.247 6.054.82 8.452-.96l4.27-3.398 1.632-1.301 8.136-6.477-5.01-.802z" id="Shape" fill="#7BCBE2" fill-rule="nonzero"/><path id="Rectangle-path" d="M.895.878h227.184V58.46H.895z"/><path d="M175.383 12.862l1.943 1.034.013.007c2.532 1.249 6.056.822 8.454-.96l4.267-3.396 1.634-1.302-16.311 4.617z" id="Shape" fill="#089BC9" fill-rule="nonzero"/><path d="M212.083 5.879l-5.427-.979s-3.778-.9-6.935 1.55c0 0-2.331 1.738-4.05 3.082l-3.823 3.033-8.843 7.048-.073.059 2.67 1.414c2.533 1.254 6.063.83 8.464-.954l7.907-6.275 6.376-5.032 3.734-2.946z" id="Shape" fill="#8F174F" fill-rule="nonzero"/><path d="M195.672 9.532a258.48 258.48 0 0 1 4.047-3.081 7.847 7.847 0 0 1 1.829-1.06l-9.852 2.854-1.634 1.3-4.266 3.399c-2.398 1.781-5.921 2.208-8.453.959 2.159 1.296 5.512 1.594 10.563.085l3.45-1.03.495-.393 3.821-3.033zm13.898 3.022c1.627-1.277 2.855-2.201 4.077-2.75l-11.028 3.543-.648.511-7.907 6.274c-2.4 1.783-5.93 2.21-8.464.954 3.893 2.142 9.887.567 14.929-1.23l.3-.243s8.44-6.841 8.74-7.06m12.968 7.119c-4.426-1.289-5.754-.474-10.969 1.098h-.001l-.436.362v-.002l-.004.005.004-.003-.013.008-8.404 6.677c-2.395 1.778-6.137 2.12-8.67.878 3.125 1.633 6.356 1.233 11.883-.495l22.15-6.813-5.54-1.715z" id="Shape" fill="#C8C4C3" fill-rule="nonzero"/><path d="M224.006 10.464l-5.859-1.068c-3.51-.653-5.17.485-8.58 3.158-.3.22-8.739 7.059-8.739 7.059l-9.474 7.658 2.668 1.414c2.535 1.256 6.294.915 8.694-.868l8.404-6.677.011-.008-.004.003 12.88-10.67z" id="Shape" fill="#8F174F" fill-rule="nonzero"/><path id="Shape" fill="#B4175E" fill-rule="nonzero" d="M191.354 12.959l18.737-5.51-7.473 5.898-19.688 6.325zm9.173 6.896l20.404-6.842-9.363 7.757-20.212 6.501z"/></g></g></g></svg>
